logos/singlestore.svg

<?xml version="1.0" encoding="UTF-8"?>
<svg width="512px" height="108px" viewBox="0 0 512 108" version="1.1" xmlns="http://www.w3.org/2000/svg" preserveAspectRatio="xMidYMid">
    <title>SingleStore</title>
    <defs>
        <linearGradient x1="67.3449258%" y1="-26.0044686%" x2="-18.5227789%" y2="22.9877555%" id="singleStoreLinearGradient-1">
            <stop stop-color="#FF7BFF" offset="0%"></stop>
            <stop stop-color="#AA00FF" offset="35.0158%"></stop>
            <stop stop-color="#8800CC" offset="100%"></stop>
        </linearGradient>
        <linearGradient x1="36.2591509%" y1="-19.3628763%" x2="111.72205%" y2="44.9975357%" id="singleStoreLinearGradient-2">
            <stop stop-color="#FF7BFF" offset="3.54358%"></stop>
            <stop stop-color="#8800CC" offset="57.6537%"></stop>
            <stop stop-color="#311B92" offset="100%"></stop>
        </linearGradient>
    </defs>
    <g>
        <g>
            <path d="M55.9768653,0 C67.4517133,3.1914522 77.9065681,11.2338689 82.2414635,21.0635926 C88.871369,37.0208536 87.3414297,57.1908534 80.0740664,69.1907024 C73.954107,79.020325 64.5192455,84.2543705 53.6818553,84.1266567 C36.8521187,83.9990438 23.2098735,70.5949486 23.0823617,53.7440947 C23.0823617,36.8931398 36.3421726,22.9784922 53.6818553,22.9784922 C56.4868114,22.9784922 60.5312185,23.3674941 65.1211374,25.2822927 C65.1211374,25.2822927 61.8213912,23.3278867 53.3467075,22.0149801 C28.9945839,18.8235481 0.260191631,37.2761803 6.89009303,79.7863051 C16.0699209,96.1265056 33.6647283,107.233166 53.6818553,107.104846 C83.133945,106.977536 107.231146,82.8501243 107.104338,53.2334414 C107.104338,24.8932908 84.0264264,0.765948731 55.9768653,0 Z" fill="url(#singleStoreLinearGradient-1)"></path>
            <path d="M75.9931841,22.5942392 C71.9133122,14.0411489 63.4984439,7.27522419 53.1711009,4.59440514 C50.8760909,3.95611874 48.4536701,3.70079206 45.7762258,3.57313882 C41.8237647,3.57313882 37.9988154,4.08378209 34.0463543,5.10504841 C24.2289574,8.04118403 17.3441294,13.7858222 13.2641565,18.2537866 C8.0367392,24.2537111 4.5942848,30.5089623 2.55431856,36.7642135 C2.55431856,36.8919273 2.42681688,37.0195401 2.42681688,37.2748668 C2.2993152,37.7855202 1.7893287,39.3173793 1.7893287,39.7004198 C1.66182702,39.9557465 1.66182702,40.338686 1.53433544,40.5940127 C1.40683376,41.104666 1.27933208,41.6152184 1.15184051,42.1258717 C1.15184051,42.2535856 1.15184051,42.3811984 1.02433883,42.5088113 C-2.29061389,58.9767256 3.21631892,73.7550584 6.53127164,79.2443295 C7.36041145,80.6173546 8.04127588,81.7628388 8.72364579,82.8138511 C1.2012589,41.9631982 22.8265298,22.4665254 47.4336769,21.955872 C60.3109525,21.7006463 73.188228,26.9345908 79.4356991,37.4025807 C79.0531638,31.6578818 78.6707295,28.4664498 75.9931841,22.5942392 Z" fill="url(#singleStoreLinearGradient-2)"></path>
        </g>
        <path d="M253.627202,36.1776795 C255.959192,36.1776795 258.368983,36.3720794 260.857585,36.7801777 C263.345176,37.1883771 265.521566,37.7131759 267.406962,38.4127731 L267.406962,81.210052 C267.406962,88.9260304 265.657969,94.5429144 262.198378,98.0218036 C258.71959,101.501198 253.433206,103.230993 246.339226,103.230993 C245.969422,103.230993 245.833019,103.230993 245.464225,103.210785 L245.464225,94.8733134 C249.429013,94.8733134 252.344001,93.9598157 254.229397,92.1328204 C256.114793,90.3059262 257.047387,87.2351353 257.047387,82.9009471 L257.047387,78.800059 L256.54219,78.800059 C255.550993,80.4326544 254.170794,81.7153502 252.442009,82.6871476 C250.712214,83.6589451 248.728809,84.1448438 246.493817,84.1448438 C243.695024,84.1448438 241.14984,83.3673452 238.837047,81.8125502 C236.523244,80.2576541 234.658056,77.7504613 233.25866,74.3103712 C231.840066,70.8702811 231.139862,66.4583936 231.139862,61.0942093 C231.139862,52.7757327 233.006061,46.5369509 236.71825,42.4165622 C240.43044,38.276774 246.06642,36.1971801 253.627202,36.1776795 Z M424.54149,36.1569664 C430.527067,36.1569664 435.133455,38.1394614 438.378842,42.1042493 C441.606042,46.0691383 443.237829,52.1331218 443.237829,60.3154983 C443.237829,76.369252 436.999654,84.3962299 424.560688,84.3962299 C418.535705,84.3962299 413.910119,82.4332355 410.68393,78.5460459 C407.45774,74.6589573 405.84414,68.5950748 405.84414,60.3931977 C405.84414,44.2227434 412.083326,36.1569664 424.54149,36.1569664 Z M312.363454,36.1403959 C323.597019,36.1403959 329.213802,44.2061729 329.213802,60.337727 L329.213802,63.5251174 L304.783474,63.5251174 C304.89967,66.6931083 305.366472,69.161502 306.202068,70.9689967 C307.037664,72.7570918 308.300657,74.0397875 310.011255,74.8171851 C311.721853,75.5946836 313.995241,75.9639828 316.852636,75.9639828 C319.787832,75.9639828 323.18882,75.4196833 327.037413,74.3313874 L327.037413,82.746963 C324.95701,83.310561 323.014022,83.73816 321.206426,83.9908596 C319.39883,84.2434583 317.532632,84.3795584 315.628038,84.3795584 C310.672053,84.3795584 306.629465,83.5632607 303.500273,81.9112657 C300.371082,80.2591697 298.058289,77.6742775 296.542697,74.1369875 C295.026095,70.5802979 294.268299,65.8963112 294.268299,60.0461272 C294.268299,52.0581505 295.842493,46.091367 298.990883,42.1070784 C302.140282,38.1227899 306.59107,36.1403959 312.363454,36.1403959 Z M495.149877,36.1403959 C506.383443,36.1403959 512.000226,44.2061729 512.000226,60.337727 L512.000226,63.5251174 L487.569898,63.5251174 C487.686093,66.6931083 488.152895,69.161502 488.988491,70.9689967 C489.824088,72.7570918 491.088091,74.0397875 492.797679,74.8171851 C494.508276,75.5946836 496.782674,75.9639828 499.63906,75.9639828 C502.574256,75.9639828 505.975243,75.4196833 509.823836,74.3313874 L509.823836,82.746963 C507.744444,83.310561 505.800445,83.73816 503.992849,83.9908596 C502.185254,84.2434583 500.320065,84.3795584 498.414461,84.3795584 C493.458477,84.3795584 489.415888,83.5632607 486.286697,81.9112657 C483.157505,80.2591697 480.844712,77.6742775 479.32912,74.1369875 C477.813528,70.5802979 477.054722,65.8963112 477.054722,60.0461272 C477.054722,52.0581505 478.629927,46.091367 481.778316,42.1070784 C484.926706,38.1227899 489.377493,36.1403959 495.149877,36.1403959 Z M148.072301,19.4448396 C150.288096,19.4448396 152.503891,19.5808387 154.680281,19.8723375 C156.857681,20.1639374 158.781472,20.5526361 160.433467,21.077334 L160.433467,30.0178095 C156.993074,28.9294126 153.164689,28.3852141 148.9665,28.3852141 C140.473124,28.3852141 136.216332,31.3005053 136.216332,37.1117892 C136.216332,38.6860848 136.489139,39.9882812 137.013534,41.0377779 C137.537928,42.0872747 138.432127,43.0396725 139.656726,43.8559702 C140.900521,44.6916675 142.611119,45.469065 144.807717,46.2076634 L148.616904,47.4903591 C153.456693,49.1229545 157.129477,51.3775488 159.636266,54.2734404 C162.124868,57.169332 163.387861,60.9398211 163.387861,65.5849076 C163.387861,69.4914968 162.533067,72.8538876 160.803272,75.6525792 C159.073476,78.4513719 156.565677,80.6086652 153.261687,82.1052615 C149.957697,83.6017567 145.973712,84.3403551 141.327918,84.3403551 C139.015125,84.3403551 136.566939,84.1459552 133.98134,83.7183562 C131.396751,83.3102579 129.06476,82.7077597 126.945963,81.9497618 L126.945963,72.9704871 C131.960551,74.6030825 136.702332,75.3999806 141.192525,75.3999806 C145.09871,75.3999806 147.994501,74.6419827 149.919302,73.1259868 C151.823896,71.6099909 152.775687,69.4137975 152.775687,66.4984052 C152.775687,64.8658099 152.484694,63.5053137 151.901696,62.3780166 C151.318699,61.2508205 150.346699,60.2596235 148.985698,59.385026 C147.625707,58.5104286 145.778706,57.6746303 143.40832,56.8778332 L139.598123,55.5950364 C130.289358,52.4270455 125.624367,46.5185617 125.624367,37.9085862 C125.624367,34.0603978 126.459963,30.7563069 128.151364,27.9965154 C129.841754,25.2366229 132.349553,23.1181288 135.691938,21.6410331 C139.035333,20.183337 143.174919,19.4448396 148.072301,19.4448396 Z M391.246971,20.2415357 L391.246971,36.8784891 L402.442142,36.8784891 L402.442142,45.138565 L391.246971,45.138565 L391.246971,66.9454038 C391.246971,69.0832974 391.480372,70.7741926 391.966372,71.9985886 C392.452372,73.2230857 393.210168,74.0976832 394.24077,74.622381 C395.270362,75.1471799 396.650561,75.4192791 398.380356,75.4192791 C399.429146,75.4192791 400.906342,75.2443798 402.831144,74.8944802 L402.831144,83.5239563 C400.575943,84.0681548 398.243953,84.340254 395.814965,84.340254 C390.93577,84.340254 387.243788,83.0574572 384.697594,80.472565 C382.1514,77.8875718 380.888407,73.7866837 380.888407,68.1891994 L380.888407,45.138565 L373.755022,45.138565 L373.755022,36.8784891 L380.888407,36.8784891 L382.734398,20.2415357 L391.246971,20.2415357 Z M357.079472,19.4240255 C359.295267,19.4240255 361.511062,19.5601256 363.687451,19.8516245 C365.864852,20.1432243 367.788643,20.5319231 369.440638,21.0566209 L369.440638,29.9970964 C366.000244,28.9086995 362.17186,28.3644 357.973671,28.3644 C349.480295,28.3644 345.223503,31.2797922 345.223503,37.0910761 C345.223503,38.6653717 345.496309,39.9674671 346.020704,41.0170648 C346.545099,42.0665616 347.439298,43.0189594 348.663896,43.8352571 C349.907692,44.6709544 351.618289,45.4483519 353.814887,46.1869503 L357.624074,47.4696461 C362.462853,49.1022415 366.136648,51.3567347 368.643436,54.2527273 C371.132038,57.1486189 372.395031,60.919108 372.395031,65.5641945 C372.395031,69.4707837 371.539227,72.8331745 369.810442,75.6318661 C368.080647,78.4305578 365.572848,80.5879521 362.268858,82.0844473 C358.964868,83.5810436 354.980882,84.319541 350.335088,84.319541 C348.003098,84.3390416 345.553902,84.1446417 342.98851,83.7170427 C340.403921,83.3089444 338.071931,82.7064462 335.953133,81.9484482 L335.953133,72.9691736 C340.967721,74.601769 345.709503,75.3986671 350.199696,75.3986671 C354.105881,75.3986671 357.001671,74.6406691 358.926473,73.1246733 C360.831066,71.6086774 361.782858,69.412484 361.782858,66.4970917 C361.782858,64.8644963 361.491864,63.5040002 360.908867,62.3768041 C360.325869,61.249507 359.35387,60.25831 357.992868,59.3837125 C356.632877,58.5091151 354.785876,57.6733168 352.415491,56.8765197 L348.605293,55.5937229 C339.276321,52.4063324 334.631537,46.4978486 334.631537,37.8878731 C334.631537,34.0396847 335.467134,30.7355938 337.158534,27.9757012 C338.848924,25.2159098 341.356723,23.0974157 344.699108,21.62032 C348.042503,20.1626239 352.18209,19.4240255 357.079472,19.4240255 Z M211.25732,36.1403959 C215.222108,36.1403959 218.370497,37.3841915 220.68329,39.8719848 C222.996083,42.3597781 224.162078,46.3829668 224.162078,51.9026508 L224.162078,83.5049609 L213.822711,83.5049609 L213.822711,52.6995489 C213.822711,50.0756555 213.298317,48.2098611 212.248517,47.1020645 C211.198717,45.994268 209.702323,45.430569 207.758324,45.430569 C206.281127,45.430569 204.784733,45.7998681 203.307536,46.5189659 C201.830339,47.2380636 200.645147,48.3459612 199.750947,49.8424564 L199.750947,83.5438611 L189.411581,83.5438611 L189.411581,36.8788932 L198.04136,36.8788932 L198.818353,41.8738794 L199.382154,41.8738794 C200.85935,40.0274845 202.608343,38.6086886 204.609935,37.6174916 C206.611526,36.6262946 208.827321,36.1403959 211.25732,36.1403959 Z M180.198804,36.8770745 L180.198804,83.5225418 L169.800834,83.5225418 L169.800834,36.8770745 L180.198804,36.8770745 Z M286.979313,14.4294435 L286.979313,83.523047 L276.639946,83.523047 L276.639946,14.4294435 L286.979313,14.4294435 Z M471.611727,36.3125671 C472.602924,36.3125671 473.594121,36.3902665 474.566121,36.5651657 L474.566121,46.224739 C473.594121,46.0497387 472.408928,45.9720394 470.970127,45.9720394 C468.890735,45.9720394 466.927538,46.4579381 465.06235,47.4102349 C463.215349,48.3626327 461.777558,49.6842287 460.786361,51.3751238 L460.786361,83.5216324 L450.445984,83.5216324 L450.445984,36.8761652 L458.997962,36.8761652 L459.814361,43.2899472 L460.319558,43.2899472 C461.466356,40.8993539 463.002156,39.1306584 464.965352,38.0034623 C466.908341,36.8761652 469.124136,36.3125671 471.611727,36.3125671 Z M424.54149,44.0478441 C422.753092,44.0478441 421.256698,44.5143433 420.090702,45.4472405 C418.924707,46.3801377 418.030508,48.0127331 417.408105,50.3838258 C416.786712,52.7550196 416.475511,56.0202104 416.475511,60.2182984 C416.475511,64.4746861 416.786712,67.7787771 417.408105,70.1304703 C418.030508,72.501563 418.924707,74.1341584 420.090702,75.0671567 C421.2375,76.0000539 422.733894,76.466452 424.560688,76.466452 C426.349086,76.4858515 427.806075,76.0194534 428.97207,75.1059558 C430.118868,74.1924582 431.013067,72.5598628 431.654667,70.2276702 C432.296268,67.8953767 432.587261,64.6495854 432.587261,60.470998 C432.587261,56.1951096 432.27606,52.8522195 431.654667,50.4616262 C431.032264,48.0710329 430.139075,46.3995373 428.952872,45.46664 C427.76768,44.5337428 426.30968,44.0478441 424.54149,44.0478441 Z M252.791606,44.2823567 C249.117811,44.2823567 246.358424,45.4873531 244.511423,47.9168467 C242.665432,50.3462391 241.752036,54.4083281 241.752036,60.1418115 C241.752036,64.1261001 242.101632,67.2552918 242.821033,69.4903854 C243.540434,71.725479 244.531631,73.280274 245.794624,74.1354719 C247.057617,74.9906698 248.671217,75.4182687 250.614205,75.4182687 C251.858001,75.4182687 253.082599,75.1266689 254.268802,74.5241707 C255.453995,73.941072 256.386589,73.1247743 257.067595,72.1141778 L257.067595,44.7488558 C255.647991,44.4378564 254.210199,44.2823567 252.791606,44.2823567 Z M312.304851,43.2537751 C310.711459,43.2537751 309.369655,43.6619745 308.300657,44.4587716 C307.23166,45.2556697 306.376866,46.655066 305.755474,48.6568596 C305.133071,50.6587541 304.802672,53.399146 304.763266,56.9170365 L319.437225,56.9170365 C319.418028,53.4186467 319.106826,50.6587541 318.544037,48.6568596 C317.980236,46.655066 317.183035,45.2556697 316.153443,44.4587716 C315.122841,43.6619745 313.84065,43.2537751 312.304851,43.2537751 Z M495.091274,43.2537751 C493.497882,43.2537751 492.157088,43.6619745 491.088091,44.4587716 C490.019094,45.2556697 489.16329,46.655066 488.541897,48.6568596 C487.919494,50.6587541 487.589095,53.399146 487.5507,56.9170365 L502.224659,56.9170365 C502.204451,53.4186467 501.89426,50.6587541 501.33046,48.6568596 C500.76666,46.655066 499.969459,45.2556697 498.939867,44.4587716 C497.909264,43.6619745 496.627074,43.2537751 495.091274,43.2537751 Z M174.641634,21.6795291 C176.487625,21.6795291 177.906219,22.1460282 178.859021,23.0595259 C179.810812,23.9730235 180.296812,25.2363197 180.296812,26.8494145 C180.296812,28.4820099 179.83102,29.7453061 178.878218,30.6394042 C177.926427,31.5334012 176.52703,31.9803998 174.641634,31.9803998 C172.794633,31.9803998 171.395237,31.5334012 170.443445,30.6394042 C169.490643,29.7453061 169.024851,28.4820099 169.024851,26.8494145 C169.024851,25.2168191 169.490643,23.9535229 170.443445,23.0400253 C171.395237,22.1460282 172.794633,21.6795291 174.641634,21.6795291 Z" fill="#000000"></path>
    </g>
</svg>

<svg preserveAspectRatio="xMidYMid" viewBox="0 0 512 108" xmlns="http://www.w3.org/2000/svg">
  <defs>
    <linearGradient id="singlestore_svg__a" x1="67.345%" x2="-18.523%" y1="-26.004%" y2="22.988%">
      <stop offset="0%" stop-color="#FF7BFF"/>
      <stop offset="35.016%" stop-color="#A0F"/>
      <stop offset="100%" stop-color="#80C"/>
    </linearGradient>
    <linearGradient id="singlestore_svg__b" x1="36.259%" x2="111.722%" y1="-19.363%" y2="44.998%">
      <stop offset="3.544%" stop-color="#FF7BFF"/>
      <stop offset="57.654%" stop-color="#80C"/>
      <stop offset="100%" stop-color="#311B92"/>
    </linearGradient>
  </defs>
  <path fill="url(#singlestore_svg__a)" d="M55.977 0c11.475 3.191 21.93 11.234 26.264 21.064 6.63 15.957 5.1 36.127-2.167 48.127-6.12 9.83-15.555 15.063-26.392 14.936-16.83-.128-30.472-13.532-30.6-30.383 0-16.85 13.26-30.766 30.6-30.766 2.805 0 6.85.39 11.44 2.304 0 0-3.3-1.954-11.775-3.267C28.995 18.824.26 37.276 6.89 79.786c9.18 16.34 26.775 27.447 46.792 27.319 29.452-.127 53.55-24.255 53.422-53.872C107.104 24.893 84.026.766 55.977 0Z"/>
  <path fill="url(#singlestore_svg__b)" d="M75.993 22.594c-4.08-8.553-12.495-15.319-22.822-18-2.295-.638-4.717-.893-7.395-1.02-3.952 0-7.777.51-11.73 1.531-9.817 2.936-16.702 8.68-20.782 13.149-5.227 6-8.67 12.255-10.71 18.51 0 .128-.127.256-.127.51-.128.512-.638 2.043-.638 2.426-.127.256-.127.639-.255.894l-.382 1.532c0 .128 0 .255-.128.383-3.315 16.468 2.192 31.246 5.507 36.735.83 1.373 1.51 2.519 2.193 3.57-7.523-40.85 14.103-60.347 38.71-60.858 12.877-.255 25.754 4.979 32.002 15.447-.383-5.745-.765-8.937-3.443-14.809Z"/>
  <path d="M253.627 36.178c2.332 0 4.742.194 7.23.602 2.488.408 4.665.933 6.55 1.633V81.21c0 7.716-1.749 13.333-5.209 16.812-3.478 3.48-8.765 5.209-15.859 5.209-.37 0-.506 0-.875-.02v-8.338c3.965 0 6.88-.913 8.765-2.74 1.886-1.827 2.818-4.898 2.818-9.232v-4.1h-.505c-.991 1.632-2.371 2.914-4.1 3.886-1.73.972-3.713 1.458-5.948 1.458-2.799 0-5.344-.778-7.657-2.332-2.314-1.555-4.179-4.063-5.578-7.503-1.419-3.44-2.12-7.852-2.12-13.216 0-8.318 1.867-14.557 5.58-18.677 3.711-4.14 9.347-6.22 16.908-6.24Zm170.914-.021c5.986 0 10.592 1.982 13.838 5.947 3.227 3.965 4.859 10.03 4.859 18.211 0 16.054-6.238 24.081-18.677 24.081-6.025 0-10.65-1.963-13.877-5.85-3.226-3.887-4.84-9.95-4.84-18.153 0-16.17 6.24-24.236 18.697-24.236Zm-112.178-.017c11.234 0 16.85 8.066 16.85 24.198v3.187h-24.43c.117 3.168.583 5.637 1.42 7.444.835 1.788 2.098 3.07 3.808 3.848s3.984 1.147 6.842 1.147c2.935 0 6.336-.544 10.184-1.633v8.416c-2.08.564-4.023.991-5.83 1.244a40.33 40.33 0 0 1-5.579.389c-4.956 0-8.999-.817-12.128-2.469-3.129-1.652-5.442-4.237-6.957-7.774-1.517-3.557-2.275-8.24-2.275-14.09 0-7.989 1.574-13.956 4.723-17.94 3.15-3.984 7.6-5.967 13.372-5.967Zm182.787 0c11.233 0 16.85 8.066 16.85 24.198v3.187h-24.43c.116 3.168.583 5.637 1.418 7.444.836 1.788 2.1 3.07 3.81 3.848s3.985 1.147 6.841 1.147c2.935 0 6.336-.544 10.185-1.633v8.416c-2.08.564-4.024.991-5.831 1.244a40.319 40.319 0 0 1-5.579.389c-4.956 0-8.998-.817-12.127-2.469-3.13-1.652-5.442-4.237-6.958-7.774-1.515-3.557-2.274-8.24-2.274-14.09 0-7.989 1.575-13.956 4.723-17.94 3.149-3.984 7.6-5.967 13.372-5.967ZM148.072 19.445c2.216 0 4.432.136 6.608.427 2.178.292 4.101.68 5.753 1.205v8.94c-3.44-1.088-7.268-1.632-11.466-1.632-8.494 0-12.75 2.916-12.75 8.727 0 1.574.272 2.876.797 3.926.524 1.05 1.418 2.002 2.643 2.818 1.244.836 2.954 1.613 5.15 2.352l3.81 1.282c4.84 1.633 8.512 3.888 11.02 6.783 2.488 2.896 3.75 6.667 3.75 11.312 0 3.906-.854 7.269-2.584 10.068-1.73 2.798-4.237 4.956-7.541 6.452-3.304 1.497-7.288 2.235-11.934 2.235a44.95 44.95 0 0 1-7.347-.622c-2.584-.408-4.916-1.01-7.035-1.768v-8.98c5.015 1.633 9.756 2.43 14.247 2.43 3.906 0 6.802-.758 8.726-2.274 1.905-1.516 2.857-3.712 2.857-6.628 0-1.632-.291-2.993-.874-4.12-.583-1.127-1.555-2.118-2.916-2.993-1.36-.875-3.207-1.71-5.578-2.507l-3.81-1.283c-9.309-3.168-13.974-9.076-13.974-17.686 0-3.849.836-7.153 2.527-9.912 1.69-2.76 4.199-4.879 7.54-6.356 3.344-1.458 7.484-2.196 12.381-2.196Zm243.175.797v16.636h11.195v8.26h-11.195v21.807c0 2.138.233 3.83.72 5.054.485 1.224 1.243 2.099 2.274 2.623 1.03.525 2.41.797 4.14.797 1.048 0 2.525-.175 4.45-.525v8.63a29.766 29.766 0 0 1-7.016.816c-4.88 0-8.571-1.283-11.117-3.867-2.547-2.585-3.81-6.686-3.81-12.284V45.14h-7.133v-8.26h7.133l1.846-16.637h8.513Zm-34.168-.818c2.216 0 4.432.136 6.608.428 2.178.291 4.102.68 5.754 1.205v8.94c-3.44-1.088-7.27-1.633-11.467-1.633-8.494 0-12.75 2.916-12.75 8.727 0 1.574.272 2.876.797 3.926.524 1.05 1.418 2.002 2.643 2.818 1.244.836 2.954 1.613 5.15 2.352l3.81 1.283c4.839 1.632 8.513 3.887 11.02 6.783 2.488 2.896 3.751 6.666 3.751 11.311 0 3.907-.856 7.27-2.585 10.068-1.73 2.799-4.237 4.956-7.541 6.452-3.304 1.497-7.288 2.236-11.934 2.236a42.512 42.512 0 0 1-7.346-.603c-2.585-.408-4.917-1.01-7.036-1.769V72.97c5.015 1.633 9.757 2.43 14.247 2.43 3.906 0 6.802-.758 8.726-2.274 1.905-1.516 2.857-3.713 2.857-6.628 0-1.633-.291-2.993-.874-4.12-.583-1.127-1.555-2.119-2.916-2.993-1.36-.875-3.207-1.71-5.578-2.507l-3.81-1.283c-9.329-3.188-13.973-9.096-13.973-17.706 0-3.848.835-7.152 2.527-9.912 1.69-2.76 4.198-4.879 7.54-6.356 3.344-1.457 7.483-2.196 12.38-2.196ZM211.257 36.14c3.965 0 7.113 1.244 9.426 3.732 2.313 2.488 3.48 6.511 3.48 12.03v31.603h-10.34V52.7c0-2.624-.525-4.49-1.574-5.598-1.05-1.108-2.547-1.671-4.49-1.671-1.478 0-2.974.369-4.451 1.088-1.478.72-2.663 1.827-3.557 3.323v33.702h-10.34V36.879h8.63l.777 4.995h.564c1.477-1.847 3.226-3.265 5.228-4.257 2.002-.99 4.217-1.477 6.647-1.477Zm-31.058.737v46.646H169.8V36.877h10.398Zm106.78-22.448v69.094h-10.34V14.429h10.34Zm184.633 21.884c.99 0 1.982.077 2.954.252v9.66c-.972-.175-2.157-.253-3.596-.253-2.08 0-4.042.486-5.908 1.438-1.847.953-3.284 2.274-4.276 3.965v32.147h-10.34V36.876h8.552l.816 6.414h.506c1.146-2.39 2.682-4.16 4.645-5.287 1.943-1.127 4.16-1.69 6.647-1.69Zm-47.07 7.735c-1.789 0-3.285.466-4.451 1.4-1.166.932-2.06 2.565-2.683 4.936-.621 2.371-.932 5.636-.932 9.834 0 4.257.31 7.56.932 9.912.623 2.372 1.517 4.004 2.683 4.937 1.147.933 2.643 1.4 4.47 1.4 1.788.019 3.245-.448 4.411-1.361 1.147-.914 2.041-2.546 2.683-4.878.641-2.333.932-5.578.932-9.757 0-4.276-.31-7.619-.932-10.01-.623-2.39-1.516-4.061-2.702-4.994-1.185-.933-2.643-1.42-4.412-1.42Zm-171.75.234c-3.674 0-6.434 1.205-8.28 3.635-1.847 2.43-2.76 6.491-2.76 12.225 0 3.984.35 7.113 1.069 9.348.72 2.235 1.71 3.79 2.974 4.645 1.263.856 2.876 1.283 4.82 1.283a7.988 7.988 0 0 0 3.654-.894c1.185-.583 2.118-1.4 2.799-2.41V44.75a20.012 20.012 0 0 0-4.276-.467Zm59.513-1.028c-1.594 0-2.935.408-4.004 1.205-1.07.797-1.924 2.196-2.546 4.198-.622 2.002-.952 4.742-.992 8.26h14.674c-.019-3.498-.33-6.258-.893-8.26-.564-2.002-1.361-3.401-2.39-4.198-1.031-.797-2.313-1.205-3.85-1.205Zm182.786 0c-1.593 0-2.934.408-4.003 1.205-1.069.797-1.925 2.196-2.546 4.198-.623 2.002-.953 4.742-.991 8.26h14.674c-.02-3.498-.33-6.258-.895-8.26-.563-2.002-1.36-3.401-2.39-4.198-1.03-.797-2.313-1.205-3.849-1.205ZM174.641 21.68c1.847 0 3.265.466 4.218 1.38.952.913 1.438 2.176 1.438 3.79 0 1.632-.466 2.895-1.419 3.79-.952.893-2.351 1.34-4.236 1.34-1.847 0-3.247-.447-4.199-1.34-.952-.895-1.418-2.158-1.418-3.79 0-1.633.466-2.896 1.418-3.81.952-.894 2.352-1.36 4.199-1.36Z"/>
</svg>
